svgs/duotone/chair-office.svg

<svg xmlns="http://www.w3.org/2000/svg" viewBox="0 0 448 512"><!-- Font Awesome Pro 6.0.0-alpha2 by @fontawesome - https://fontawesome.com License - https://fontawesome.com/license (Commercial License) --><defs><style>.fa-secondary{opacity:.4}</style></defs><path d="M256 451.375V384H192V451.375C163.75 457.375 141 471 130.125 488.625C123.75 498.875 132.5 512 145.125 512H302.875C315.5 512 324.25 498.875 317.875 488.625C307 471 284.25 457.375 256 451.375ZM288 0H160C124.625 0 96 28.625 96 64V288H352V64C352 28.625 323.375 0 288 0Z" class="fa-secondary"/><path d="M403.625 309.875C399.375 296.75 387.125 288 373.25 288H74.75C60.875 288 48.75 296.75 44.375 309.875L33.625 341.875C26.75 362.625 42.125 384 64 384H384C405.75 384 421.25 362.625 414.375 341.875L403.625 309.875ZM64 224V160C64 142.375 49.625 128 32 128S0 142.375 0 160V224C0 241.625 14.375 256 32 256S64 241.625 64 224ZM416 128C398.375 128 384 142.375 384 160V224C384 241.625 398.375 256 416 256S448 241.625 448 224V160C448 142.375 433.625 128 416 128Z" class="fa-primary"/></svg>

<svg xmlns="http://www.w3.org/2000/svg" viewBox="0 0 448 512"><!--! Font Awesome Pro 6.3.0 by @fontawesome - https://fontawesome.com License - https://fontawesome.com/license (Commercial License) Copyright 2023 Fonticons, Inc. --><defs><style>.fa-secondary{opacity:.4}</style></defs><path class="fa-primary" d="M403.6 309.9C399.4 296.8 387.1 288 373.3 288h-298.5c-13.88 0-26 8.75-30.38 21.88l-10.75 32C26.75 362.6 42.12 384 63.1 384H384c21.75 0 37.25-21.38 30.37-42.13L403.6 309.9zM64 224L64 160c0-17.62-14.38-32-32-32S0 142.4 0 160v64c0 17.62 14.38 32 32 32S64 241.6 64 224zM416 128c-17.62 0-32 14.38-32 32l-.0052 64c0 17.62 14.38 32 32.01 32s32-14.38 32-32V160C448 142.4 433.6 128 416 128z"/><path class="fa-secondary" d="M256 451.4V384H192v67.38c-28.25 6-51 19.62-61.88 37.25C123.8 498.9 132.5 512 145.1 512h157.8c12.62 0 21.38-13.12 15-23.38C307 471 284.3 457.4 256 451.4zM287.1 0h-128C124.6 0 95.98 28.62 95.98 64L96 288h256l-.0137-224C351.1 28.62 323.4 0 287.1 0z"/></svg>
